build/svg/cmd/sc_selectdata.svg

<?xml version="1.0" encoding="UTF-8" standalone="no"?>
<svg
   xmlns:dc="http://purl.org/dc/elements/1.1/"
   xmlns:cc="http://creativecommons.org/ns#"
   xmlns:rdf="http://www.w3.org/1999/02/22-rdf-syntax-ns#"
   xmlns:svg="http://www.w3.org/2000/svg"
   xmlns="http://www.w3.org/2000/svg"
   xmlns:sodipodi="http://sodipodi.sourceforge.net/DTD/sodipodi-0.dtd"
   xmlns:inkscape="http://www.inkscape.org/namespaces/inkscape"
   viewBox="0 0 16 16"
   version="1.1"
   id="svg4"
   sodipodi:docname="sc_selectdata.svg"
   inkscape:export-filename="/home/jupiter007/Libreoffice yaru theme fullcolor/build/cmd/sc_selectdata.png"
   inkscape:export-xdpi="95"
   inkscape:export-ydpi="95"
   inkscape:version="0.92.5 (2060ec1f9f, 2020-04-08)">
  <metadata
     id="metadata10">
    <rdf:RDF>
      <cc:Work
         rdf:about="">
        <dc:format>image/svg+xml</dc:format>
        <dc:type
           rdf:resource="http://purl.org/dc/dcmitype/StillImage" />
      </cc:Work>
    </rdf:RDF>
  </metadata>
  <defs
     id="defs8" />
  <sodipodi:namedview
     pagecolor="#ffffff"
     bordercolor="#666666"
     borderopacity="1"
     objecttolerance="10"
     gridtolerance="10"
     guidetolerance="10"
     inkscape:pageopacity="0"
     inkscape:pageshadow="2"
     inkscape:window-width="1920"
     inkscape:window-height="1011"
     id="namedview6"
     showgrid="true"
     inkscape:zoom="41.7193"
     inkscape:cx="6.2718107"
     inkscape:cy="4.119143"
     inkscape:window-x="0"
     inkscape:window-y="32"
     inkscape:window-maximized="1"
     inkscape:current-layer="svg4">
    <inkscape:grid
       type="xygrid"
       id="grid833" />
  </sodipodi:namedview>
  <path
     style="fill:#f2cbf8;fill-opacity:1;stroke-width:0.91666681"
     id="path817"
     d="m 8.0000002,2.4999997 c -3.0375665,0 -5.5000003,0.8208113 -5.5000003,1.8333333 v 7.333333 C 2.4999999,12.679188 4.9624338,13.5 8.0000002,13.5 11.037565,13.5 13.5,12.679188 13.5,11.666666 V 4.333333 C 13.5,3.320811 11.037565,2.4999997 8.0000002,2.4999997 Z"
     inkscape:connector-curvature="0"
     sodipodi:nodetypes="sssssss" />
  <path
     inkscape:connector-curvature="0"
     d="m 8.0000002,1.9999997 a 6,2 0 0 0 -6.0000004,2 V 12 A 6,2 0 0 0 8.0000002,14 6,2 0 0 0 14,12 V 3.9999997 a 6,2 0 0 0 -5.9999998,-2 z m 0,1 a 5,1 0 0 1 4.9999998,1 5,1 0 0 1 -4.9999998,1 5,1 0 0 1 -5.0000003,-1 5,1 0 0 1 5.0000003,-1 z M 2.9999999,5.1015622 A 6,2 0 0 0 8.0000002,5.9999997 6,2 0 0 0 13,5.1035153 v 2.8964849 a 5,1 0 0 1 -4.9999998,1 5,1 0 0 1 -5.0000003,-1 z m 0,4 A 6,2 0 0 0 8.0000002,10 6,2 0 0 0 13,9.1035152 V 12 A 5,1 0 0 1 8.0000002,13 5,1 0 0 1 2.9999999,12 Z"
     id="path2"
     style="fill:#8e03a3;fill-opacity:1" />
  <path
     style="fill:#ffffff;fill-opacity:1;stroke:#ffffff;stroke-width:2;stroke-linejoin:round;stroke-miterlimit:4;stroke-dasharray:none"
     inkscape:connector-curvature="0"
     id="path834"
     d="M 10,9 10.0036,15.048611 11.763637,13 h 3.236333 z" />
  <path
     d="M 10,9 10.0036,15.048611 11.763637,13 h 3.236333 z"
     id="path4"
     inkscape:connector-curvature="0"
     style="fill:#232629;fill-opacity:1;stroke-width:0.62036997" />
</svg>

<svg xmlns="http://www.w3.org/2000/svg" viewBox="0 0 16 16"><path d="M8 2.5c-3.038 0-5.5.82-5.5 1.833v7.334C2.5 12.679 4.962 13.5 8 13.5s5.5-.82 5.5-1.833V4.333C13.5 3.321 11.038 2.5 8 2.5z" fill="#f2cbf8"/><path d="M8 2a6 2 0 00-6 2v8a6 2 0 006 2 6 2 0 006-2V4a6 2 0 00-6-2zm0 1a5 1 0 015 1 5 1 0 01-5 1 5 1 0 01-5-1 5 1 0 015-1zM3 5.102A6 2 0 008 6a6 2 0 005-.896V8a5 1 0 01-5 1 5 1 0 01-5-1zm0 4A6 2 0 008 10a6 2 0 005-.896V12a5 1 0 01-5 1 5 1 0 01-5-1z" fill="#8e03a3"/><path d="M10 9l.004 6.049L11.764 13H15z" fill="#fff" stroke="#fff" stroke-width="2" stroke-linejoin="round"/><path d="M10 9l.004 6.049L11.764 13H15z" fill="#232629"/></svg>
